T: Crossing The Shannon
M: 4/4
L: 1/8
K: Dmaj
|: FG | Addd AdFd | Addd fdBd | Addd AdFd | AGFD EFGB |
Addd AdFd | Addd fdBd | Adfa gefa | gece d2 :|
|: FG | Addd fage | fage fdBd | Addd AdFd | AGFD EFGB |
Addd fage | fage fdBd | Adfa gefa | gece d2 :|
